img/icons/google-icon.svg

<svg width="23" height="23" viewBox="0 0 23 23" fill="none" xmlns="http://www.w3.org/2000/svg">
<path d="M5.09728 13.8994L4.29669 16.8881L1.37052 16.95C0.496027 15.328 0 13.4722 0 11.5002C0 9.59319 0.463773 7.79488 1.28584 6.21143H1.28647L3.89158 6.68903L5.03278 9.27851C4.79393 9.97485 4.66374 10.7223 4.66374 11.5002C4.66383 12.3443 4.81675 13.1532 5.09728 13.8994Z" fill="#FBBB00"/>
<path d="M22.7982 9.35205C22.9303 10.0477 22.9991 10.7661 22.9991 11.5004C22.9991 12.3237 22.9126 13.1268 22.7477 13.9015C22.1878 16.5377 20.7251 18.8396 18.6987 20.4685L18.698 20.4679L15.4168 20.3005L14.9524 17.4014C16.297 16.6129 17.3478 15.3788 17.9013 13.9015H11.752V9.35205H17.991H22.7982Z" fill="#518EF8"/>
<path d="M18.6975 20.4677L18.6981 20.4683C16.7273 22.0524 14.2238 23.0002 11.4986 23.0002C7.11914 23.0002 3.31152 20.5523 1.36914 16.9501L5.0959 13.8994C6.06707 16.4913 8.56738 18.3364 11.4986 18.3364C12.7585 18.3364 13.9389 17.9958 14.9518 17.4012L18.6975 20.4677Z" fill="#28B446"/>
<path d="M18.8397 2.64752L15.1142 5.69753C14.066 5.0423 12.8268 4.66379 11.4993 4.66379C8.50172 4.66379 5.95465 6.5935 5.03213 9.27834L1.28579 6.21126H1.28516C3.1991 2.52115 7.05474 0 11.4993 0C14.2896 0 16.8481 0.993941 18.8397 2.64752Z" fill="#F14336"/>
</svg>

<svg width="23" height="23" fill="none" xmlns="http://www.w3.org/2000/svg"><path d="M5.097 13.9l-.8 2.988-2.926.062A11.449 11.449 0 010 11.5c0-1.907.464-3.705 1.286-5.289l2.606.478 1.14 2.59a6.836 6.836 0 00-.368 2.221c0 .844.153 1.653.433 2.4z" fill="#FBBB00"/><path d="M22.798 9.352a11.522 11.522 0 01-.05 4.55 11.498 11.498 0 01-4.05 6.566l-3.281-.168-.465-2.899a6.853 6.853 0 002.95-3.5h-6.15V9.352h11.046z" fill="#518EF8"/><path d="M18.698 20.468a11.452 11.452 0 01-7.2 2.532C7.12 23 3.313 20.552 1.37 16.95l3.727-3.05a6.838 6.838 0 009.856 3.501l3.746 3.067z" fill="#28B446"/><path d="M18.84 2.648l-3.726 3.05a6.84 6.84 0 00-10.082 3.58L1.286 6.211A11.498 11.498 0 0111.498 0c2.79 0 5.35.994 7.34 2.648z" fill="#F14336"/></svg>
